X: 2
T: The Green Groves Of Erin
R: reel
M: 4/4
L: 1/8
K: Ador
A2cA eAcA|G2Bd gdBG|A2cA eAcA|BGED EA~A2|A2cA eAcA|G2Bd gdBG|A2cA eAcA|1 BGED EGBG:|2 BGED EGBd||ea~a2 ea~a2|eg~g2 egdg|ea~a2 ea~a2|edef gedg|ea~a2 bgag|edef g3e|dega b2 ag|1 egfa gedg:|2 egfa gedB||


Tune 41	Setting 41

